Obsidian/actions/22s/kdenlive-custom-effect.svg

<svg height="22" viewBox="0 0 22 22" width="22" xmlns="http://www.w3.org/2000/svg"><path d="m2 0c-1.108 0-2 .892-2 2v12c0 1.108.892 2 2 2h12c1.108 0 2-.892 2-2v-12c0-1.108-.892-2-2-2zm1.7148438 2h8.5703122c.95 0 1.714844.7651437 1.714844 1.7148438v8.5703122c0 .95-.764844 1.714844-1.714844 1.714844h-8.5703122c-.9497 0-1.7148438-.764844-1.7148438-1.714844v-8.5703122c0-.9497.7651437-1.7148438 1.7148438-1.7148438zm3.0253906 1-.1113282 1.3164062a3.964 3.9286 0 0 0 -1.1582031.6640626l-1.2089843-.5625-1.2597657 2.1640624 1.0957031.7558594a3.964 3.9286 0 0 0 -.0605468.6621094 3.964 3.9286 0 0 0 .0585937.6660156l-1.09375.7519532 1.2597657 2.1640622 1.2050781-.5625a3.964 3.9286 0 0 0 1.1621093.660157l.1113282 1.320312h2.5214844l.1113281-1.316406a3.964 3.9286 0 0 0 1.1582031-.664063l1.208984.5625 1.261719-2.1640622-1.097656-.7558594a3.964 3.9286 0 0 0 .060547-.6621094 3.964 3.9286 0 0 0 -.056641-.6660156l1.09375-.7519532-1.261719-2.1640624-1.205078.5625a3.964 3.9286 0 0 0 -1.1621091-.6601563l-.1113281-1.3203125zm1.2617187 3.5722656a1.4414 1.4286 0 0 1 1.4414063 1.4277344 1.4414 1.4286 0 0 1 -1.4414063 1.4277344 1.4414 1.4286 0 0 1 -1.4414062-1.4277344 1.4414 1.4286 0 0 1 1.4414062-1.4277344z" fill="#bebebe" transform="translate(3 3)"/></svg>

<svg xmlns="http://www.w3.org/2000/svg" width="22" height="22" viewBox="0 0 22 22">
 <defs>
  <style id="current-color-scheme" type="text/css">
   .ColorScheme-Text { color:#bebebe; } .ColorScheme-Highlight { color:#4285f4; }
  </style>
 </defs>
 <path style="fill:currentColor" class="ColorScheme-Text" d="M 2 0 C 0.892 0 0 0.892 0 2 L 0 14 C 0 15.108 0.892 16 2 16 L 14 16 C 15.108 16 16 15.108 16 14 L 16 2 C 16 0.892 15.108 0 14 0 L 2 0 z M 3.7148438 2 L 12.285156 2 C 13.235156 2 14 2.7651437 14 3.7148438 L 14 12.285156 C 14 13.235156 13.235156 14 12.285156 14 L 3.7148438 14 C 2.7651438 14 2 13.235156 2 12.285156 L 2 3.7148438 C 2 2.7651438 2.7651437 2 3.7148438 2 z M 6.7402344 3 L 6.6289062 4.3164062 A 3.964 3.9286 0 0 0 5.4707031 4.9804688 L 4.2617188 4.4179688 L 3.0019531 6.5820312 L 4.0976562 7.3378906 A 3.964 3.9286 0 0 0 4.0371094 8 A 3.964 3.9286 0 0 0 4.0957031 8.6660156 L 3.0019531 9.4179688 L 4.2617188 11.582031 L 5.4667969 11.019531 A 3.964 3.9286 0 0 0 6.6289062 11.679688 L 6.7402344 13 L 9.2617188 13 L 9.3730469 11.683594 A 3.964 3.9286 0 0 0 10.53125 11.019531 L 11.740234 11.582031 L 13.001953 9.4179688 L 11.904297 8.6621094 A 3.964 3.9286 0 0 0 11.964844 8 A 3.964 3.9286 0 0 0 11.908203 7.3339844 L 13.001953 6.5820312 L 11.740234 4.4179688 L 10.535156 4.9804688 A 3.964 3.9286 0 0 0 9.3730469 4.3203125 L 9.2617188 3 L 6.7402344 3 z M 8.0019531 6.5722656 A 1.4414 1.4286 0 0 1 9.4433594 8 A 1.4414 1.4286 0 0 1 8.0019531 9.4277344 A 1.4414 1.4286 0 0 1 6.5605469 8 A 1.4414 1.4286 0 0 1 8.0019531 6.5722656 z" transform="translate(3 3)"/>
</svg>
